static/img/kroki/d3d3a86a0252c00b1cdbec67675a4726.svg

<?xml version="1.0" encoding="us-ascii" standalone="no"?><svg xmlns="http://www.w3.org/2000/svg" xmlns:xlink="http://www.w3.org/1999/xlink" contentStyleType="text/css" height="374px" preserveAspectRatio="none" style="width:535px;height:374px;" version="1.1" viewBox="0 0 535 374" width="535px" zoomAndPan="magnify"><defs/><g><!--class azure_machine_learning_featurestore_entity_container--><g id="elem_azure_machine_learning_featurestore_entity_container"><rect codeLine="23" fill="#3D176E" height="39.7891" id="azure_machine_learning_featurestore_entity_container" rx="2.5" ry="2.5" style="stroke:#000D19;stroke-width:0.5;" width="506" x="7" y="328.58"/><ellipse cx="22" cy="348.4745" fill="#ADD1B2" rx="11" ry="11" style="stroke:#181818;stroke-width:1.0;"/><path d="M24.9688,354.1152 Q24.3906,354.412 23.75,354.5527 Q23.1094,354.7089 22.4063,354.7089 Q19.9063,354.7089 18.5781,353.0683 Q17.2656,351.412 17.2656,348.287 Q17.2656,345.162 18.5781,343.5058 Q19.9063,341.8495 22.4063,341.8495 Q23.1094,341.8495 23.75,342.0058 Q24.4063,342.162 24.9688,342.4589 L24.9688,345.1777 Q24.3438,344.5995 23.75,344.3339 Q23.1563,344.0527 22.5313,344.0527 Q21.1875,344.0527 20.5,345.1308 Q19.8125,346.1933 19.8125,348.287 Q19.8125,350.3808 20.5,351.4589 Q21.1875,352.5214 22.5313,352.5214 Q23.1563,352.5214 23.75,352.2558 Q24.3438,351.9745 24.9688,351.3964 L24.9688,354.1152 Z " fill="#000000"/><text fill="#D9B8FF" font-family="Helvetica" font-size="17" lengthAdjust="spacing" textLength="464" x="41" y="354.3598">azure_machine_learning_featurestore_entity_container</text></g><!--class azure_proxy_resource--><g id="elem_azure_proxy_resource"><rect codeLine="26" fill="#3D176E" height="39.7891" id="azure_proxy_resource" rx="2.5" ry="2.5" style="stroke:#000D19;stroke-width:0.5;" width="224" x="69" y="167.79"/><ellipse cx="84" cy="187.6845" fill="#ADD1B2" rx="11" ry="11" style="stroke:#181818;stroke-width:1.0;"/><path d="M86.9688,193.3252 Q86.3906,193.622 85.75,193.7627 Q85.1094,193.9189 84.4063,193.9189 Q81.9063,193.9189 80.5781,192.2783 Q79.2656,190.622 79.2656,187.497 Q79.2656,184.372 80.5781,182.7158 Q81.9063,181.0595 84.4063,181.0595 Q85.1094,181.0595 85.75,181.2158 Q86.4063,181.372 86.9688,181.6689 L86.9688,184.3877 Q86.3438,183.8095 85.75,183.5439 Q85.1563,183.2627 84.5313,183.2627 Q83.1875,183.2627 82.5,184.3408 Q81.8125,185.4033 81.8125,187.497 Q81.8125,189.5908 82.5,190.6689 Q83.1875,191.7314 84.5313,191.7314 Q85.1563,191.7314 85.75,191.4658 Q86.3438,191.1845 86.9688,190.6064 L86.9688,193.3252 Z " fill="#000000"/><text fill="#D9B8FF" font-family="Helvetica" font-size="17" lengthAdjust="spacing" textLength="182" x="103" y="193.5698">azure_proxy_resource</text></g><!--class microsoft_resource--><g id="elem_microsoft_resource"><rect codeLine="29" fill="#3D176E" height="39.7891" id="microsoft_resource" rx="2.5" ry="2.5" style="stroke:#000D19;stroke-width:0.5;" width="200" x="328" y="167.79"/><ellipse cx="343" cy="187.6845" fill="#ADD1B2" rx="11" ry="11" style="stroke:#181818;stroke-width:1.0;"/><path d="M345.9688,193.3252 Q345.3906,193.622 344.75,193.7627 Q344.1094,193.9189 343.4063,193.9189 Q340.9063,193.9189 339.5781,192.2783 Q338.2656,190.622 338.2656,187.497 Q338.2656,184.372 339.5781,182.7158 Q340.9063,181.0595 343.4063,181.0595 Q344.1094,181.0595 344.75,181.2158 Q345.4063,181.372 345.9688,181.6689 L345.9688,184.3877 Q345.3438,183.8095 344.75,183.5439 Q344.1563,183.2627 343.5313,183.2627 Q342.1875,183.2627 341.5,184.3408 Q340.8125,185.4033 340.8125,187.497 Q340.8125,189.5908 341.5,190.6689 Q342.1875,191.7314 343.5313,191.7314 Q344.1563,191.7314 344.75,191.4658 Q345.3438,191.1845 345.9688,190.6064 L345.9688,193.3252 Z " fill="#000000"/><text fill="#D9B8FF" font-family="Helvetica" font-size="17" lengthAdjust="spacing" textLength="158" x="362" y="193.5698">microsoft_resource</text></g><!--class resource--><g id="elem_resource"><rect codeLine="32" fill="#3D176E" height="39.7891" id="resource" rx="2.5" ry="2.5" style="stroke:#000D19;stroke-width:0.5;" width="113" x="371.5" y="7"/><ellipse cx="386.5" cy="26.8945" fill="#ADD1B2" rx="11" ry="11" style="stroke:#181818;stroke-width:1.0;"/><path d="M389.4688,32.5352 Q388.8906,32.832 388.25,32.9727 Q387.6094,33.1289 386.9063,33.1289 Q384.4063,33.1289 383.0781,31.4883 Q381.7656,29.832 381.7656,26.707 Q381.7656,23.582 383.0781,21.9258 Q384.4063,20.2695 386.9063,20.2695 Q387.6094,20.2695 388.25,20.4258 Q388.9063,20.582 389.4688,20.8789 L389.4688,23.5977 Q388.8438,23.0195 388.25,22.7539 Q387.6563,22.4727 387.0313,22.4727 Q385.6875,22.4727 385,23.5508 Q384.3125,24.6133 384.3125,26.707 Q384.3125,28.8008 385,29.8789 Q385.6875,30.9414 387.0313,30.9414 Q387.6563,30.9414 388.25,30.6758 Q388.8438,30.3945 389.4688,29.8164 L389.4688,32.5352 Z " fill="#000000"/><text fill="#D9B8FF" font-family="Helvetica" font-size="17" lengthAdjust="spacing" textLength="71" x="405.5" y="32.7798">resource</text></g><!--reverse link azure_proxy_resource to azure_machine_learning_featurestore_entity_container--><g id="link_azure_proxy_resource_azure_machine_learning_featurestore_entity_container"><path codeLine="35" d="M198.546,223.9566 C213.726,254.4766 235.23,297.69 250.44,328.25 " fill="none" id="azure_proxy_resource-backto-azure_machine_learning_featurestore_entity_container" style="stroke:#FFAF37;stroke-width:2.0;"/><polygon fill="none" points="190.53,207.84,193.1738,226.6286,203.9182,221.2845,190.53,207.84" style="stroke:#FFAF37;stroke-width:2.0;"/></g><!--reverse link microsoft_resource to azure_machine_learning_featurestore_entity_container--><g id="link_microsoft_resource_azure_machine_learning_featurestore_entity_container"><path codeLine="36" d="M394.6567,220.2023 C362.3567,250.7223 312.67,297.69 280.34,328.25 " fill="none" id="microsoft_resource-backto-azure_machine_learning_featurestore_entity_container" style="stroke:#FFAF37;stroke-width:2.0;"/><polygon fill="none" points="407.74,207.84,390.5359,215.8412,398.7775,224.5634,407.74,207.84" style="stroke:#FFAF37;stroke-width:2.0;"/></g><!--reverse link resource to microsoft_resource--><g id="link_resource_microsoft_resource"><path codeLine="37" d="M428,65.05 C428,95.57 428,136.9 428,167.46 " fill="none" id="resource-backto-microsoft_resource" style="stroke:#FFAF37;stroke-width:2.0;"/><polygon fill="none" points="428,47.05,422,65.05,434,65.05,428,47.05" style="stroke:#FFAF37;stroke-width:2.0;"/></g><!--SRC=[fP91Jy9048Nl_HMRS2O1YGA95o0nUY56l3V3xYpTqEusirEngF_TLjGiRO54h_E-VU_DP1EZK62MSoaopDP8Fl9ROtCWoCICoEqMBdKaUbg37esRufspV15OGeRY7jCNP2EXIJmdHcujUY-k0caEShiXLrXri6S2woi9BGVK8WNlPynarWLZK4PDrnEjcsJJj3TIm_4DjZ172kaR6Gm6QZXj8XUZpkxzIwpC7iKmFDhICRPgjYA-gBCjQo8esLhqHp_PyH6KCdOZheFPqw4JMQIZ-Ie1vNOrhI7rOOnd97HSvhXeRONJYTBZJlZX51p9-dG2zWLXd85CZCKuHI1RfSSQWIl1iwlKwgSOBcDPBGccRlmMHHz7xtDohsLSyQuWYQ6U6KdEEysTwl6iq-lslT_l_wbcr97z3xU6Hziy-WG0]--></g></svg>

<svg xmlns="http://www.w3.org/2000/svg" width="535" height="374" viewBox="0 0 535 374"><rect width="506" height="39.789" x="7" y="328.58" fill="#3D176E" rx="2.5" ry="2.5" style="stroke:#000d19;stroke-width:.5"/><circle cx="22" cy="348.474" r="11" fill="#ADD1B2" style="stroke:#181818;stroke-width:1"/><path d="M24.969 354.115q-.578.297-1.219.438-.64.156-1.344.156-2.5 0-3.828-1.64-1.312-1.657-1.312-4.782t1.312-4.781q1.328-1.656 3.828-1.656.703 0 1.344.156.656.156 1.219.453v2.719q-.625-.579-1.219-.844-.594-.281-1.219-.281-1.343 0-2.031 1.078-.687 1.062-.687 3.156t.687 3.172q.688 1.062 2.031 1.062.625 0 1.219-.265.594-.281 1.219-.86z"/><text x="41" y="354.36" fill="#D9B8FF" font-family="Helvetica" font-size="17" textLength="464">azure_machine_learning_featurestore_entity_container</text><rect width="224" height="39.789" x="69" y="167.79" fill="#3D176E" rx="2.5" ry="2.5" style="stroke:#000d19;stroke-width:.5"/><circle cx="84" cy="187.685" r="11" fill="#ADD1B2" style="stroke:#181818;stroke-width:1"/><path d="M86.969 193.325q-.578.297-1.219.438-.64.156-1.344.156-2.5 0-3.828-1.64-1.312-1.657-1.312-4.782t1.312-4.781q1.328-1.656 3.828-1.656.703 0 1.344.156.656.156 1.219.453v2.719q-.625-.578-1.219-.844-.594-.281-1.219-.281-1.344 0-2.031 1.078-.687 1.062-.687 3.156t.687 3.172q.688 1.062 2.031 1.062.625 0 1.219-.265.594-.281 1.219-.86z"/><text x="103" y="193.57" fill="#D9B8FF" font-family="Helvetica" font-size="17" textLength="182">azure_proxy_resource</text><rect width="200" height="39.789" x="328" y="167.79" fill="#3D176E" rx="2.5" ry="2.5" style="stroke:#000d19;stroke-width:.5"/><circle cx="343" cy="187.685" r="11" fill="#ADD1B2" style="stroke:#181818;stroke-width:1"/><path d="M345.969 193.325q-.578.297-1.219.438-.64.156-1.344.156-2.5 0-3.828-1.64-1.312-1.657-1.312-4.782t1.312-4.781q1.328-1.656 3.828-1.656.703 0 1.344.156.656.156 1.219.453v2.719q-.625-.578-1.219-.844-.594-.281-1.219-.281-1.344 0-2.031 1.078-.687 1.062-.687 3.156t.687 3.172q.688 1.062 2.031 1.062.625 0 1.219-.265.594-.281 1.219-.86z"/><text x="362" y="193.57" fill="#D9B8FF" font-family="Helvetica" font-size="17" textLength="158">microsoft_resource</text><rect width="113" height="39.789" x="371.5" y="7" fill="#3D176E" rx="2.5" ry="2.5" style="stroke:#000d19;stroke-width:.5"/><circle cx="386.5" cy="26.895" r="11" fill="#ADD1B2" style="stroke:#181818;stroke-width:1"/><path d="M389.469 32.535q-.578.297-1.219.438-.64.156-1.344.156-2.5 0-3.828-1.64-1.312-1.657-1.312-4.782t1.312-4.781q1.328-1.656 3.828-1.656.703 0 1.344.156.656.156 1.219.453v2.719q-.625-.578-1.219-.844-.594-.281-1.219-.281-1.344 0-2.031 1.078-.687 1.062-.687 3.156t.687 3.172q.688 1.062 2.031 1.062.625 0 1.219-.265.594-.281 1.219-.86z"/><text x="405.5" y="32.78" fill="#D9B8FF" font-family="Helvetica" font-size="17" textLength="71">resource</text><g fill="none"><path d="M198.546 223.957c15.18 30.52 36.684 73.733 51.894 104.293" style="stroke:#ffaf37;stroke-width:2"/><path d="m190.53 207.84 2.644 18.789 10.744-5.344z" style="stroke:#ffaf37;stroke-width:2"/></g><g fill="none"><path d="M394.657 220.202c-32.3 30.52-81.987 77.488-114.317 108.048" style="stroke:#ffaf37;stroke-width:2"/><path d="m407.74 207.84-17.204 8.001 8.241 8.722z" style="stroke:#ffaf37;stroke-width:2"/></g><path fill="none" d="M428 65.05v102.41m0-120.41-6 18h12z" style="stroke:#ffaf37;stroke-width:2"/></svg>
